lib/svgs/yunzhijia.svg

<?xml version="1.0" encoding="UTF-8"?>
<svg width="16px" height="17px" viewBox="0 0 16 17" version="1.1" xmlns="http://www.w3.org/2000/svg" xmlns:xlink="http://www.w3.org/1999/xlink">
    <!-- Generator: sketchtool 51.3 (57544) - http://www.bohemiancoding.com/sketch -->
    <title>brand/yunzhijia</title>
    <desc>Created with sketchtool.</desc>
    <defs></defs>
    <g id="Icons" stroke="none" stroke-width="1" fill="none" fill-rule="evenodd">
        <g id="Web" transform="translate(-523.000000, -1037.000000)" fill="#000000">
            <g id="brand/yunzhijia" transform="translate(523.000000, 1037.000000)">
                <path d="M5.68888889,8.88888889 C5.33333333,8.26666667 4.53333333,7.82222222 3.73333333,7.82222222 C2.48888889,7.82222222 1.42222222,8.88888889 1.42222222,10.1333333 C1.42222222,10.4888889 1.15555556,10.7555556 0.888888889,10.8444444 C0.444444444,10.9333333 0,10.6666667 0,10.2222222 L0,9.77777778 C0.177777778,7.91111111 1.68888889,6.57777778 3.46666667,6.4 C4.88888889,6.31111111 6.22222222,7.11111111 6.84444444,8.17777778 C7.11111111,8.62222222 6.93333333,9.06666667 6.48888889,9.24444444 C6.22222222,9.33333333 5.86666667,9.15555556 5.68888889,8.88888889 Z M12.4444444,8.97777778 C12,9.06666667 11.5555556,8.71111111 11.4666667,8.17777778 L11.4666667,8 L11.4666667,7.91111111 C11.0222222,6.4 9.68888889,5.42222222 8.08888889,5.42222222 C7.11111111,5.42222222 6.22222222,5.77777778 5.6,6.4 C5.15555556,6.13333333 4.71111111,6.04444444 4.26666667,5.95555556 C5.15555556,4.71111111 6.57777778,4 8.17777778,4 C10.4,4 12.2666667,5.51111111 12.8888889,7.55555556 L12.9777778,7.55555556 C14.6666667,7.55555556 16,8.88888889 16,10.5777778 C16,12.2666667 14.6666667,13.6 12.9777778,13.6 L5.95555556,13.6 C5.51111111,13.6 5.24444444,13.2444444 5.24444444,12.8888889 C5.24444444,12.5333333 5.6,12.2666667 5.95555556,12.2666667 L10.4,12.2666667 L12.8888889,12.2666667 C13.8666667,12.2666667 14.6666667,11.3777778 14.5777778,10.4 C14.4888889,9.68888889 13.8666667,9.06666667 13.0666667,8.97777778 C12.8,8.88888889 12.6222222,8.88888889 12.4444444,8.97777778 Z" id="Combined-Shape"></path>
            </g>
        </g>
    </g>
</svg>

<svg xmlns="http://www.w3.org/2000/svg" viewBox="0 0 16 17">
    <path d="M5.689 8.889a2.32 2.32 0 0 0-1.956-1.067 2.353 2.353 0 0 0-2.31 2.311.774.774 0 0 1-.534.711c-.445.09-.889-.177-.889-.622v-.444C.178 7.91 1.689 6.578 3.467 6.4a3.74 3.74 0 0 1 3.377 1.778c.267.444.09.889-.355 1.066-.267.09-.622-.088-.8-.355zm6.755.089c-.444.089-.888-.267-.977-.8V7.91a3.442 3.442 0 0 0-3.378-2.489c-.978 0-1.867.356-2.489.978a3.932 3.932 0 0 0-1.333-.444A4.721 4.721 0 0 1 8.177 4a4.96 4.96 0 0 1 4.712 3.556h.089A2.997 2.997 0 0 1 16 10.578a2.997 2.997 0 0 1-3.022 3.022H5.956a.701.701 0 0 1-.712-.711c0-.356.356-.622.712-.622h6.933c.978 0 1.778-.89 1.689-1.867a1.701 1.701 0 0 0-1.511-1.422c-.267-.09-.445-.09-.623 0z"/>
</svg>
